communes/3662.svg

<?xml version="1.0" encoding="UTF-8"?>
<!DOCTYPE svg  PUBLIC '-//W3C//DTD SVG 1.1//EN'  'http://www.w3.org/Graphics/SVG/1.1/DTD/svg11.dtd'>
<svg width="438" height="480" viewBox="21 15 438 480" xmlns="http://www.w3.org/2000/svg" xmlns:dc="http://purl.org/dc/elements/1.1/" xmlns:rdf="http://www.w3.org/1999/02/22-rdf-syntax-ns#" xmlns:xlink="http://www.w3.org/1999/xlink">
<metadata>
<rdf:RDF>
<rdf:Description dc:date="2006-10-29" dc:format="image/svg+xml" dc:language="de" dc:title="Wappen Flerden (CH-GR)">
<dc:creator rdf:resource="http://de.wikipedia.org/wiki/Benutzer:Bernina"/>
</rdf:Description>
</rdf:RDF>
</metadata>
<title>Wappen Flerden (CH-GR)</title>
<style type="text/css"><![CDATA[
  .Rand2 { stroke: #202020; stroke-width:30; }
  .Rand3 { stroke: #202020; stroke-width:45; }
  .Rand6 { stroke: #202020; stroke-width:90; }
  .Rand2Hell { stroke: #ffffff; stroke-width:30; }
  .Rot { fill: #ff0000; }
  .Gold { fill: #ffef00; }
  ]]></style>
<defs>
<path id="d" d="m4050 3600a450 450 0 0 0-900 0 450 450 0 0 0 900 0z"/>
<path id="c" d="m3600 3240a360 360 0 0 0-360 360"/>
<path id="b" d="m3600 3330a270 270 0 0 0-270 270"/>
<path id="a" d="m3600 3420a180 180 0 0 0-180 180"/>
<path id="e" d="m3645 1530v495c0 375 0 1065 45 1815s135 1560 180 1995 45 495 0 525-135 30-180-60-45-270-75-690-90-1080-120-1770-30-1410-30-1800v-510"/>
<path id="g" d="m3015 180a900 900 0 0 1 1080 0l-90 1350h-900l-90-1350z"/>
<path id="f" d="m3045 360a812 812 0 0 1 1020 0"/>
<clipPath id="h">
<path d="m360 4140a3240 3240 0 0 0 6480 0v-3870h-6480v3870z"/>
</clipPath>
</defs>
<g transform="scale(.066667)" fill="none" fill-rule="evenodd" stroke-miterlimit="10" stroke-width="10">
<g clip-path="url(#h)">
<path class="Gold" d="m-225-225v7650h7650v-7650h-7650z"/>
<g transform="translate(2250)">
<use class="Rot Rand2" xlink:href="#d"/>
<use class="Rand2Hell" xlink:href="#c"/>
<use class="Rand2Hell" xlink:href="#b"/>
<use class="Rand2Hell" xlink:href="#a"/>
</g>
<g transform="translate(-2250)">
<use class="Rot Rand2" xlink:href="#d"/>
<use class="Rand2Hell" xlink:href="#c"/>
<use class="Rand2Hell" xlink:href="#b"/>
<use class="Rand2Hell" xlink:href="#a"/>
</g>
<g transform="translate(0,2250)">
<use class="Rot Rand2" xlink:href="#d"/>
<use class="Rand2Hell" xlink:href="#c"/>
<use class="Rand2Hell" xlink:href="#b"/>
<use class="Rand2Hell" xlink:href="#a"/>
</g>
<g transform="translate(0,-2250)">
<use class="Rot Rand2" xlink:href="#d"/>
<use class="Rand2Hell" xlink:href="#c"/>
<use class="Rand2Hell" xlink:href="#b"/>
<use class="Rand2Hell" xlink:href="#a"/>
</g>
<g transform="rotate(45 3600 3600) translate(7200) scale(-1 1)">
<use class="Rot Rand2" xlink:href="#e"/>
<use class="Rot Rand2" xlink:href="#g"/>
<use class="Rand3" xlink:href="#f"/>
</g>
<g transform="rotate(-45 3600,3600)">
<use class="Rot Rand2" xlink:href="#e"/>
<use class="Rot Rand2" xlink:href="#g"/>
<use class="Rand3" xlink:href="#f"/>
</g>
</g>
<path class="Rand6" d="m360 4140a3240 3240 0 0 0 6480 0v-3870h-6480v3870z"/>
</g>
</svg>

<?xml version="1.0" encoding="iso-8859-1"?>
<!DOCTYPE svg PUBLIC "-//W3C//DTD SVG 1.1//EN" "http://www.w3.org/Graphics/SVG/1.1/DTD/svg11.dtd">
<!-- Auto-generated by fig2svg tool
     Date: Sun Oct 29 09:18:43 2006 -->
<svg xmlns="http://www.w3.org/2000/svg"
   xmlns:dc="http://purl.org/dc/elements/1.1/"
   xmlns:cc="http://creativecommons.org/ns#"
   xmlns:rdf="http://www.w3.org/1999/02/22-rdf-syntax-ns#"
   xmlns:svg="http://www.w3.org/2000/svg"
   xmlns:xlink="http://www.w3.org/1999/xlink"
     width="438" height="480" viewBox="21 15 438 480">
<metadata>
<rdf:RDF>
<rdf:Description
 dc:title="Wappen Flerden (CH-GR)"
 dc:date="2006-10-29"
 dc:format="image/svg+xml"
 dc:language="de">
<dc:creator rdf:resource="http://de.wikipedia.org/wiki/Benutzer:Bernina" />
</rdf:Description>
</rdf:RDF>
</metadata>
<title>
Wappen Flerden (CH-GR)
</title>
<style type="text/css">
  <![CDATA[
  .Rand2 { stroke: #202020; stroke-width:30; }
  .Rand3 { stroke: #202020; stroke-width:45; }
  .Rand6 { stroke: #202020; stroke-width:90; }
  .Rand2Hell { stroke: #ffffff; stroke-width:30; }
  .Rot { fill: #ff0000; }
  .Gold { fill: #ffef00; }
  ]]>
</style>
<defs>
<path id="kugel-1"
      d="M4050,3600 A450,450 0.0 0 0 3150,3600 A450,450 0.0 0 0 4050,3600 Z" />
<path id="kugel-linie-1" d="M3600,3240 A360,360 0.0 0 0 3240,3600" />
<path id="kugel-linie-2" d="M3600,3330 A270,270 0.0 0 0 3330,3600" />
<path id="kugel-linie-3" d="M3600,3420 A180,180 0.0 0 0 3420,3600" />
<path id="stiel-1"
      d="M3645,1530 C3645,1590 3645,1650 3645,2025
         C3645,2400 3645,3090 3690,3840 C3735,4590 3825,5400 3870,5835
         C3915,6270 3915,6330 3870,6360 C3825,6390 3735,6390 3690,6300
         C3645,6210 3645,6030 3615,5610 C3585,5190 3525,4530 3495,3840
         C3465,3150 3465,2430 3465,2040 C3465,1650 3465,1590 3465,1530" />
<path id="brett-1"
      d="M3015,180 A900,900 0.0 0 1 4095,180 L4005,1530 L3105,1530 L3015,180 Z" />
<path id="brett-linie-1" d="M3045,360 A812,812 0.0 0 1 4065,360" />
<clipPath id="clippath">
<path d="M360,4140 A3240,3240 0.0 0 0 6840,4140 L6840,270 L360,270 L360,4140 Z" />
</clipPath>
</defs>
<g stroke="none" stroke-miterlimit="10" stroke-width="10"
   stroke-linecap="butt" stroke-linejoin="miter"
   fill="none" fill-rule="evenodd" transform="scale(0.066667)">
<g clip-path="url(#clippath)">
<path id="feld-1" class="Gold"
      d="M-225,-225 L-225,7425 L7425,7425 L7425,-225 L-225,-225 Z" />
<g transform="translate(2250,0)">
<use class="Rot Rand2" xlink:href="#kugel-1" />
<use class="Rand2Hell" xlink:href="#kugel-linie-1" />
<use class="Rand2Hell" xlink:href="#kugel-linie-2" />
<use class="Rand2Hell" xlink:href="#kugel-linie-3" />
</g>
<g transform="translate(-2250,0)">
<use class="Rot Rand2" xlink:href="#kugel-1" />
<use class="Rand2Hell" xlink:href="#kugel-linie-1" />
<use class="Rand2Hell" xlink:href="#kugel-linie-2" />
<use class="Rand2Hell" xlink:href="#kugel-linie-3" />
</g>
<g transform="translate(0,2250)">
<use class="Rot Rand2" xlink:href="#kugel-1" />
<use class="Rand2Hell" xlink:href="#kugel-linie-1" />
<use class="Rand2Hell" xlink:href="#kugel-linie-2" />
<use class="Rand2Hell" xlink:href="#kugel-linie-3" />
</g>
<g transform="translate(0,-2250)">
<use class="Rot Rand2" xlink:href="#kugel-1" />
<use class="Rand2Hell" xlink:href="#kugel-linie-1" />
<use class="Rand2Hell" xlink:href="#kugel-linie-2" />
<use class="Rand2Hell" xlink:href="#kugel-linie-3" />
</g>
<g transform="rotate(45 3600,3600) translate(7200,0) scale(-1,1)">
<use class="Rot Rand2" xlink:href="#stiel-1" />
<use class="Rot Rand2" xlink:href="#brett-1" />
<use class="Rand3" xlink:href="#brett-linie-1" />
</g>
<g transform="rotate(-45 3600,3600)">
<use class="Rot Rand2" xlink:href="#stiel-1" />
<use class="Rot Rand2" xlink:href="#brett-1" />
<use class="Rand3" xlink:href="#brett-linie-1" />
</g>
</g>
<path id="clip-boundary" class="Rand6"
      d="M360,4140 A3240,3240 0.0 0 0 6840,4140 L6840,270 L360,270 L360,4140 Z" />
</g>
</svg>
